svgs/thin/booth-curtain.svg

<svg xmlns="http://www.w3.org/2000/svg" viewBox="0 0 512 512"><!-- Font Awesome Pro 6.0.0-alpha2 by @fontawesome - https://fontawesome.com License - https://fontawesome.com/license (Commercial License) --><path d="M472 0H40C17.938 0 0 17.938 0 40V504C0 508.422 3.594 512 8 512S16 508.422 16 504V40C16 26.766 26.781 16 40 16H96V400C96 426.51 117.49 448 144 448C160.717 448 175.406 439.436 184 426.475C192.594 439.436 207.283 448 224 448S255.406 439.436 264 426.475C272.594 439.436 287.283 448 304 448S335.406 439.436 344 426.475C352.594 439.436 367.283 448 384 448S415.406 439.436 424 426.475C432.594 439.436 447.283 448 464 448C476.35 448 487.494 443.205 496 435.543V504C496 508.422 499.594 512 504 512S512 508.422 512 504V40C512 17.938 494.062 0 472 0ZM176 400C176 417.645 161.645 432 144 432S112 417.645 112 400V16H176V400ZM256 400C256 417.645 241.645 432 224 432S192 417.645 192 400V16H256V400ZM336 400C336 417.645 321.645 432 304 432S272 417.645 272 400V16H336V400ZM416 400C416 417.645 401.645 432 384 432S352 417.645 352 400V16H416V400ZM496 400C496 417.645 481.645 432 464 432S432 417.645 432 400V16H472C485.219 16 496 26.766 496 40V400Z"/></svg>

<svg xmlns="http://www.w3.org/2000/svg" viewBox="0 0 512 512"><!--! Font Awesome Pro 6.3.0 by @fontawesome - https://fontawesome.com License - https://fontawesome.com/license (Commercial License) Copyright 2023 Fonticons, Inc. --><path d="M472 0H40C17.94 0 0 17.94 0 40v464C0 508.4 3.594 512 8 512s8-3.578 8-8V40c0-13.23 10.78-24 24-24H96v384C96 426.5 117.5 448 144 448c16.72 0 31.41-8.564 40-21.53C192.6 439.4 207.3 448 224 448s31.41-8.564 40-21.53C272.6 439.4 287.3 448 304 448s31.41-8.564 40-21.53C352.6 439.4 367.3 448 384 448s31.41-8.564 40-21.53C432.6 439.4 447.3 448 464 448c12.35 0 23.49-4.795 32-12.46V504c0 4.422 3.594 8 8 8S512 508.4 512 504V40C512 17.94 494.1 0 472 0zM176 400c0 17.64-14.36 32-32 32s-32-14.36-32-32v-384h64V400zM256 400c0 17.64-14.36 32-32 32s-32-14.36-32-32v-384h64V400zM336 400c0 17.64-14.36 32-32 32s-32-14.36-32-32v-384h64V400zM416 400c0 17.64-14.36 32-32 32s-32-14.36-32-32v-384h64V400zM496 400c0 17.64-14.36 32-32 32s-32-14.36-32-32v-384h40c13.22 0 24 10.77 24 24V400z"/></svg>
